assets/scalability-icon.svg

<svg width="72" height="65" xmlns="http://www.w3.org/2000/svg">
 <mask id="path-1-inside-1">
  <path id="svg_1" d="m24.7204,15.8958c-0.5292,0 -1.0937,-0.2167 -1.4818,-0.65l-7.6917,-7.84269l0,55.43049c0,1.1915 -0.9527,2.1664 -2.117,2.1664c-1.1644,0 -2.117,-0.9749 -2.117,-2.1664l0,-55.43071l-7.69188,7.84291c-0.81151,0.8666 -2.15228,0.8305 -2.999081,0c-0.8468,-0.8304 -0.811517,-2.2024 0,-3.069l11.290661,-11.553968c0.8115,-0.830443 2.1523,-0.830443 2.9991,0l11.2907,11.553968c0.8115,0.8305 0.8115,2.2025 0,3.069c-0.3882,0.4333 -0.9527,0.65 -1.482,0.65zm45.1626,18.7746l-45.1626,0c-1.1644,0 -2.117,-0.9749 -2.117,-2.1664c0,-1.1915 0.9526,-2.1663 2.117,-2.1663l45.1626,0c1.1644,0 2.117,0.9748 2.117,2.1663c0,1.1915 -0.9526,2.1664 -2.117,2.1664zm-45.1626,15.1653l31.0493,0c1.1643,0 2.117,-0.9748 2.117,-2.1663c0,-1.1915 -0.9527,-2.1664 -2.117,-2.1664l-31.0493,0c-1.1644,0 -2.117,0.9749 -2.117,2.1664c0,1.1915 0.9526,2.1663 2.117,2.1663zm0,15.1643l16.9359,0c1.1644,0 2.117,-0.9749 2.117,-2.1664c0,-1.1915 -0.9526,-2.1663 -2.117,-2.1663l-16.9359,0c-1.1644,0 -2.117,0.9748 -2.117,2.1663c0,1.1915 0.9526,2.1664 2.117,2.1664z" clip-rule="evenodd" fill-rule="evenodd"/>
 </mask>

 <g>
  <title>background</title>
  <rect fill="none" id="canvas_background" height="402" width="582" y="-1" x="-1"/>
 </g>
 <g>
  <title>Layer 1</title>
  <path id="svg_2" fill="#007fff" d="m24.797488,15.818712c-0.5292,0 -1.0937,-0.2167 -1.4818,-0.65l-7.6917,-7.84269l0,55.43049c0,1.1915 -0.9527,2.1664 -2.117,2.1664c-1.1644,0 -2.117,-0.9749 -2.117,-2.1664l0,-55.43071l-7.69188,7.84291c-0.81151,0.8666 -2.15228,0.8305 -2.999081,0c-0.8468,-0.8304 -0.811517,-2.2024 0,-3.069l11.290661,-11.553968c0.8115,-0.830443 2.1523,-0.830443 2.9991,0l11.2907,11.553968c0.8115,0.8305 0.8115,2.2025 0,3.069c-0.3882,0.4333 -0.9527,0.65 -1.482,0.65zm45.1626,18.7746l-45.1626,0c-1.1644,0 -2.117,-0.9749 -2.117,-2.1664c0,-1.1915 0.9526,-2.1663 2.117,-2.1663l45.1626,0c1.1644,0 2.117,0.9748 2.117,2.1663c0,1.1915 -0.9526,2.1664 -2.117,2.1664zm-45.1626,15.1653l31.0493,0c1.1643,0 2.117,-0.9748 2.117,-2.1663c0,-1.1915 -0.9527,-2.1664 -2.117,-2.1664l-31.0493,0c-1.1644,0 -2.117,0.9749 -2.117,2.1664c0,1.1915 0.9526,2.1663 2.117,2.1663zm0,15.1643l16.9359,0c1.1644,0 2.117,-0.9749 2.117,-2.1664c0,-1.1915 -0.9526,-2.1663 -2.117,-2.1663l-16.9359,0c-1.1644,0 -2.117,0.9748 -2.117,2.1663c0,1.1915 0.9526,2.1664 2.117,2.1664z" clip-rule="evenodd" fill-rule="evenodd"/>
  <path id="svg_3" mask="url(#path-1-inside-1)" fill="#007fff" d="m23.2386,15.2458l0.9683,-0.8673l-0.0196,-0.0219l-0.0206,-0.021l-0.9281,0.9102zm-7.6917,-7.84269l0.9281,-0.91026l-2.2281,-2.2719l0,3.18216l1.3,0zm-4.234,-0.00022l1.3,0l0,-3.18215l-2.2281,2.2719l0.9281,0.91025zm-7.69188,7.84291l-0.92813,-0.9102l-0.0105,0.0107l-0.01024,0.0109l0.94887,0.8886zm-2.999081,-3.069l-0.929773,-0.9086l-0.009657,0.0099l-0.009445,0.0101l0.948875,0.8886zm11.290661,-11.553968l0.9298,0.908578l-0.9298,-0.908578zm2.9991,0l0.9298,-0.908582l-0.0097,-0.009893l-0.0099,-0.009684l-0.9102,0.928159zm11.2907,11.553968l0.9297,-0.9086l-0.9297,0.9086zm0,3.069l-0.9489,-0.8886l-0.0099,0.0105l-0.0096,0.0108l0.9684,0.8673zm-1.482,-0.65c-0.1976,0 -0.3963,-0.0865 -0.5135,-0.2173l-1.9367,1.7347c0.659,0.7357 1.5894,1.0826 2.4502,1.0826l0,-2.6zm-0.5537,-0.2602l-7.6917,-7.84275l-1.8562,1.82052l7.6916,7.84273l1.8563,-1.8205zm-9.9198,-6.93249l0,55.43049l2.6,0l0,-55.43049l-2.6,0zm0,55.43049c0,0.502 -0.3987,0.8664 -0.817,0.8664l0,2.6c1.9104,0 3.417,-1.5853 3.417,-3.4664l-2.6,0zm-0.817,0.8664c-0.4183,0 -0.817,-0.3644 -0.817,-0.8664l-2.6,0c0,1.8811 1.5066,3.4664 3.417,3.4664l0,-2.6zm-0.817,-0.8664l0,-55.43071l-2.6,0l0,55.43071l2.6,0zm-2.2281,-56.34096l-7.69191,7.84296l1.85627,1.8205l7.69184,-7.84295l-1.8562,-1.82051zm-7.71265,7.86456c-0.26332,0.2812 -0.76102,0.3321 -1.13998,-0.0395l-1.820462,1.8563c1.314642,1.2893 3.498472,1.4124 4.858192,-0.0395l-1.89775,-1.7773zm-1.13998,-0.0395c-0.29274,-0.2871 -0.33919,-0.8488 0.03864,-1.2523l-1.897746,-1.7772c-1.245204,1.3297 -1.362224,3.512 0.038644,4.8858l1.820462,-1.8563zm0.01954,-1.2323l11.29069,-11.55399l-1.8596,-1.81716l-11.290634,11.55395l1.859544,1.8172zm11.29069,-11.55399c0.2909,-0.29772 0.8068,-0.3259 1.1591,0.01958l1.8204,-1.856317c-1.3413,-1.315403 -3.507,-1.343583 -4.8391,0.019577l1.8596,1.81716zm1.1395,0l11.2907,11.55399l1.8595,-1.8172l-11.2906,-11.55395l-1.8596,1.81716zm11.2907,11.55399c0.3076,0.3148 0.3345,0.8943 -0.0191,1.2718l1.8977,1.7773c1.2695,-1.3556 1.2963,-3.5202 -0.0191,-4.8663l-1.8595,1.8172zm-0.0386,1.2931c-0.1172,0.1308 -0.3159,0.2173 -0.5136,0.2173l0,2.6c0.8609,0 1.7913,-0.3469 2.4503,-1.0826l-1.9367,-1.7347zm44.649,18.9919l-45.1626,0l0,2.6l45.1626,0l0,-2.6zm-45.1626,0c-0.4183,0 -0.817,-0.3644 -0.817,-0.8664l-2.6,0c0,1.8811 1.5066,3.4664 3.417,3.4664l0,-2.6zm-0.817,-0.8664c0,-0.5019 0.3987,-0.8663 0.817,-0.8663l0,-2.6c-1.9104,0 -3.417,1.5853 -3.417,3.4663l2.6,0zm0.817,-0.8663l45.1626,0l0,-2.6l-45.1626,0l0,2.6zm45.1626,0c0.4183,0 0.817,0.3644 0.817,0.8663l2.6,0c0,-1.881 -1.5066,-3.4663 -3.417,-3.4663l0,2.6zm0.817,0.8663c0,0.502 -0.3987,0.8664 -0.817,0.8664l0,2.6c1.9104,0 3.417,-1.5853 3.417,-3.4664l-2.6,0zm-45.9796,18.6317l31.0493,0l0,-2.6l-31.0493,0l0,2.6zm31.0493,0c1.9104,0 3.417,-1.5853 3.417,-3.4663l-2.6,0c0,0.5019 -0.3987,0.8663 -0.817,0.8663l0,2.6zm3.417,-3.4663c0,-1.8811 -1.5066,-3.4664 -3.417,-3.4664l0,2.6c0.4183,0 0.817,0.3644 0.817,0.8664l2.6,0zm-3.417,-3.4664l-31.0493,0l0,2.6l31.0493,0l0,-2.6zm-31.0493,0c-1.9104,0 -3.417,1.5853 -3.417,3.4664l2.6,0c0,-0.502 0.3987,-0.8664 0.817,-0.8664l0,-2.6zm-3.417,3.4664c0,1.881 1.5066,3.4663 3.417,3.4663l0,-2.6c-0.4183,0 -0.817,-0.3644 -0.817,-0.8663l-2.6,0zm3.417,18.6306l16.9359,0l0,-2.6l-16.9359,0l0,2.6zm16.9359,0c1.9104,0 3.417,-1.5853 3.417,-3.4664l-2.6,0c0,0.502 -0.3987,0.8664 -0.817,0.8664l0,2.6zm3.417,-3.4664c0,-1.881 -1.5066,-3.4663 -3.417,-3.4663l0,2.6c0.4183,0 0.817,0.3644 0.817,0.8663l2.6,0zm-3.417,-3.4663l-16.9359,0l0,2.6l16.9359,0l0,-2.6zm-16.9359,0c-1.9104,0 -3.417,1.5853 -3.417,3.4663l2.6,0c0,-0.5019 0.3987,-0.8663 0.817,-0.8663l0,-2.6zm-3.417,3.4663c0,1.8811 1.5066,3.4664 3.417,3.4664l0,-2.6c-0.4183,0 -0.817,-0.3644 -0.817,-0.8664l-2.6,0z"/>
 </g>
</svg>

<svg width="72" height="65" viewBox="0 0 72 65" fill="none" xmlns="http://www.w3.org/2000/svg">
<mask id="path-1-inside-1" fill="white">
<path fill-rule="evenodd" clip-rule="evenodd" d="M24.7204 15.8958C24.1912 15.8958 23.6267 15.6791 23.2386 15.2458L15.5469 7.40311V62.8336C15.5469 64.0251 14.5942 65 13.4299 65C12.2655 65 11.3129 64.0251 11.3129 62.8336V7.40289L3.62102 15.2458C2.80951 16.1124 1.46874 16.0763 0.621939 15.2458C-0.224861 14.4154 -0.189578 13.0434 0.621939 12.1768L11.9126 0.622832C12.7241 -0.207611 14.0649 -0.207611 14.9117 0.622832L26.2024 12.1768C27.0139 13.0073 27.0139 14.3793 26.2024 15.2458C25.8142 15.6791 25.2497 15.8958 24.7204 15.8958ZM69.883 34.6704H24.7204C23.556 34.6704 22.6034 33.6955 22.6034 32.504C22.6034 31.3125 23.556 30.3377 24.7204 30.3377H69.883C71.0474 30.3377 72 31.3125 72 32.504C72 33.6955 71.0474 34.6704 69.883 34.6704ZM24.7204 49.8357H55.7697C56.934 49.8357 57.8867 48.8609 57.8867 47.6694C57.8867 46.4779 56.934 45.503 55.7697 45.503H24.7204C23.556 45.503 22.6034 46.4779 22.6034 47.6694C22.6034 48.8609 23.556 49.8357 24.7204 49.8357ZM24.7204 65H41.6563C42.8207 65 43.7733 64.0251 43.7733 62.8336C43.7733 61.6421 42.8207 60.6673 41.6563 60.6673H24.7204C23.556 60.6673 22.6034 61.6421 22.6034 62.8336C22.6034 64.0251 23.556 65 24.7204 65Z"/>
</mask>
<path fill-rule="evenodd" clip-rule="evenodd" d="M24.7204 15.8958C24.1912 15.8958 23.6267 15.6791 23.2386 15.2458L15.5469 7.40311V62.8336C15.5469 64.0251 14.5942 65 13.4299 65C12.2655 65 11.3129 64.0251 11.3129 62.8336V7.40289L3.62102 15.2458C2.80951 16.1124 1.46874 16.0763 0.621939 15.2458C-0.224861 14.4154 -0.189578 13.0434 0.621939 12.1768L11.9126 0.622832C12.7241 -0.207611 14.0649 -0.207611 14.9117 0.622832L26.2024 12.1768C27.0139 13.0073 27.0139 14.3793 26.2024 15.2458C25.8142 15.6791 25.2497 15.8958 24.7204 15.8958ZM69.883 34.6704H24.7204C23.556 34.6704 22.6034 33.6955 22.6034 32.504C22.6034 31.3125 23.556 30.3377 24.7204 30.3377H69.883C71.0474 30.3377 72 31.3125 72 32.504C72 33.6955 71.0474 34.6704 69.883 34.6704ZM24.7204 49.8357H55.7697C56.934 49.8357 57.8867 48.8609 57.8867 47.6694C57.8867 46.4779 56.934 45.503 55.7697 45.503H24.7204C23.556 45.503 22.6034 46.4779 22.6034 47.6694C22.6034 48.8609 23.556 49.8357 24.7204 49.8357ZM24.7204 65H41.6563C42.8207 65 43.7733 64.0251 43.7733 62.8336C43.7733 61.6421 42.8207 60.6673 41.6563 60.6673H24.7204C23.556 60.6673 22.6034 61.6421 22.6034 62.8336C22.6034 64.0251 23.556 65 24.7204 65Z" fill="#F8B133"/>
<path d="M23.2386 15.2458L24.2069 14.3785L24.1873 14.3566L24.1667 14.3356L23.2386 15.2458ZM15.5469 7.40311L16.475 6.49285L14.2469 4.22095V7.40311H15.5469ZM11.3129 7.40289H12.6129V4.22074L10.3848 6.49264L11.3129 7.40289ZM3.62102 15.2458L2.69289 14.3356L2.68239 14.3463L2.67215 14.3572L3.62102 15.2458ZM0.621939 12.1768L-0.307834 11.2682L-0.317491 11.2781L-0.326936 11.2882L0.621939 12.1768ZM11.9126 0.622832L12.8424 1.53141L11.9126 0.622832ZM14.9117 0.622832L15.8415 -0.28575L15.8318 -0.295643L15.8219 -0.305327L14.9117 0.622832ZM26.2024 12.1768L27.1321 11.2682L26.2024 12.1768ZM26.2024 15.2458L25.2535 14.3572L25.2436 14.3677L25.234 14.3785L26.2024 15.2458ZM24.7204 14.5958C24.5228 14.5958 24.3241 14.5093 24.2069 14.3785L22.2702 16.1132C22.9292 16.8489 23.8596 17.1958 24.7204 17.1958V14.5958ZM24.1667 14.3356L16.475 6.49285L14.6188 8.31337L22.3104 16.1561L24.1667 14.3356ZM14.2469 7.40311V62.8336H16.8469V7.40311H14.2469ZM14.2469 62.8336C14.2469 63.3356 13.8482 63.7 13.4299 63.7V66.3C15.3403 66.3 16.8469 64.7147 16.8469 62.8336H14.2469ZM13.4299 63.7C13.0116 63.7 12.6129 63.3356 12.6129 62.8336H10.0129C10.0129 64.7147 11.5195 66.3 13.4299 66.3V63.7ZM12.6129 62.8336V7.40289H10.0129V62.8336H12.6129ZM10.3848 6.49264L2.69289 14.3356L4.54916 16.1561L12.241 8.31315L10.3848 6.49264ZM2.67215 14.3572C2.40883 14.6384 1.91113 14.6893 1.53217 14.3177L-0.288292 16.174C1.02635 17.4633 3.21018 17.5864 4.5699 16.1345L2.67215 14.3572ZM1.53217 14.3177C1.23943 14.0306 1.19298 13.4689 1.57081 13.0654L-0.326936 11.2882C-1.57214 12.6179 -1.68916 14.8002 -0.288292 16.174L1.53217 14.3177ZM1.55171 13.0854L12.8424 1.53141L10.9828 -0.28575L-0.307834 11.2682L1.55171 13.0854ZM12.8424 1.53141C13.1333 1.23369 13.6492 1.20551 14.0015 1.55099L15.8219 -0.305327C14.4806 -1.62073 12.3149 -1.64891 10.9828 -0.28575L12.8424 1.53141ZM13.9819 1.53141L25.2726 13.0854L27.1321 11.2682L15.8415 -0.28575L13.9819 1.53141ZM25.2726 13.0854C25.5802 13.4002 25.6071 13.9797 25.2535 14.3572L27.1512 16.1345C28.4207 14.7789 28.4475 12.6143 27.1321 11.2682L25.2726 13.0854ZM25.234 14.3785C25.1168 14.5093 24.9181 14.5958 24.7204 14.5958V17.1958C25.5813 17.1958 26.5117 16.8489 27.1707 16.1132L25.234 14.3785ZM69.883 33.3704H24.7204V35.9704H69.883V33.3704ZM24.7204 33.3704C24.3021 33.3704 23.9034 33.006 23.9034 32.504H21.3034C21.3034 34.3851 22.81 35.9704 24.7204 35.9704V33.3704ZM23.9034 32.504C23.9034 32.0021 24.3021 31.6377 24.7204 31.6377V29.0377C22.81 29.0377 21.3034 30.623 21.3034 32.504H23.9034ZM24.7204 31.6377H69.883V29.0377H24.7204V31.6377ZM69.883 31.6377C70.3013 31.6377 70.7 32.0021 70.7 32.504H73.3C73.3 30.623 71.7934 29.0377 69.883 29.0377V31.6377ZM70.7 32.504C70.7 33.006 70.3013 33.3704 69.883 33.3704V35.9704C71.7934 35.9704 73.3 34.3851 73.3 32.504H70.7ZM24.7204 51.1357H55.7697V48.5357H24.7204V51.1357ZM55.7697 51.1357C57.6801 51.1357 59.1867 49.5504 59.1867 47.6694H56.5867C56.5867 48.1713 56.188 48.5357 55.7697 48.5357V51.1357ZM59.1867 47.6694C59.1867 45.7883 57.6801 44.203 55.7697 44.203V46.803C56.188 46.803 56.5867 47.1674 56.5867 47.6694H59.1867ZM55.7697 44.203H24.7204V46.803H55.7697V44.203ZM24.7204 44.203C22.81 44.203 21.3034 45.7883 21.3034 47.6694H23.9034C23.9034 47.1674 24.3021 46.803 24.7204 46.803V44.203ZM21.3034 47.6694C21.3034 49.5504 22.81 51.1357 24.7204 51.1357V48.5357C24.3021 48.5357 23.9034 48.1713 23.9034 47.6694H21.3034ZM24.7204 66.3H41.6563V63.7H24.7204V66.3ZM41.6563 66.3C43.5667 66.3 45.0733 64.7147 45.0733 62.8336H42.4733C42.4733 63.3356 42.0746 63.7 41.6563 63.7V66.3ZM45.0733 62.8336C45.0733 60.9526 43.5667 59.3673 41.6563 59.3673V61.9673C42.0746 61.9673 42.4733 62.3317 42.4733 62.8336H45.0733ZM41.6563 59.3673H24.7204V61.9673H41.6563V59.3673ZM24.7204 59.3673C22.81 59.3673 21.3034 60.9526 21.3034 62.8336H23.9034C23.9034 62.3317 24.3021 61.9673 24.7204 61.9673V59.3673ZM21.3034 62.8336C21.3034 64.7147 22.81 66.3 24.7204 66.3V63.7C24.3021 63.7 23.9034 63.3356 23.9034 62.8336H21.3034Z" fill="#222222" mask="url(#path-1-inside-1)"/>
</svg>
